packages/ui-solid/icons/guard_28.svg

<svg width="28" height="28" viewBox="0 0 28 28" fill="none" xmlns="http://www.w3.org/2000/svg">
<path fill-rule="evenodd" clip-rule="evenodd" d="M13.1274 0.97838C13.6822 0.883102 14.2492 0.883102 14.804 0.97838C15.4321 1.08624 16.023 1.35403 16.8772 1.74117C16.9142 1.75792 16.9517 1.7749 16.9896 1.79209L21.9801 4.05182C22.0178 4.06891 22.0552 4.08579 22.092 4.10248C23.0579 4.53941 23.7368 4.84652 24.3426 5.42011C24.818 5.87028 25.3211 6.62035 25.5571 7.23107C25.8575 8.00828 25.8792 8.61666 25.9098 9.47512C25.9106 9.49876 25.9115 9.52259 25.9123 9.54661C26.0306 12.8404 25.5436 16.8085 23.8776 20.1584C22.1926 23.5467 19.2854 26.3158 14.6553 27.0277L14.6474 27.0289C14.5001 27.0516 14.3885 27.0687 14.2073 27.0798C14.0779 27.0877 13.8535 27.0877 13.7241 27.0798C13.5429 27.0687 13.4313 27.0516 13.284 27.0289L13.2761 27.0277C8.64596 26.3158 5.73883 23.5467 4.0538 20.1584C2.38783 16.8085 1.90081 12.8404 2.01905 9.54661C2.01991 9.52259 2.02076 9.49876 2.02161 9.47512C2.05222 8.61666 2.07392 8.00828 2.37429 7.23107C2.61033 6.62035 3.11335 5.87028 3.58879 5.42011C4.19458 4.84652 4.87347 4.53941 5.83936 4.10248C5.87625 4.08579 5.91356 4.06891 5.9513 4.05182L10.9418 1.79209C10.9797 1.7749 11.0172 1.75792 11.0542 1.74117C11.9084 1.35403 12.4993 1.08624 13.1274 0.97838ZM14.4691 2.92841C14.1359 2.87119 13.7955 2.87119 13.4623 2.92841C13.1156 2.98795 12.7677 3.13727 11.7579 3.5945L6.76744 5.85423C5.65085 6.35983 5.28733 6.53662 4.94915 6.85683C4.68718 7.10488 4.34989 7.60782 4.21983 7.94434C4.04835 8.38803 4.0299 8.68317 3.99635 9.61759C3.88555 12.7041 4.35244 16.3156 5.82538 19.2774C7.27926 22.2008 9.69604 24.4754 13.5768 25.0721C13.7216 25.0944 13.7574 25.0996 13.8447 25.1049C13.8938 25.1079 14.0376 25.1079 14.0867 25.1049C14.174 25.0996 14.2098 25.0944 14.3546 25.0721C18.2354 24.4754 20.6521 22.2008 22.106 19.2774C23.579 16.3156 24.0458 12.7041 23.935 9.61759C23.9015 8.68317 23.883 8.38802 23.7116 7.94434C23.5815 7.60782 23.2442 7.10488 22.9822 6.85683C22.6441 6.53662 22.2806 6.35983 21.164 5.85423L16.1735 3.5945C15.1637 3.13727 14.8158 2.98795 14.4691 2.92841Z" fill="#007AFF"/>
<path fill-rule="evenodd" clip-rule="evenodd" d="M12.7693 11.6201C12.7024 11.8232 12.5127 11.9605 12.2987 11.9605H9.84948C9.36794 11.9605 9.16945 12.578 9.56079 12.8586L11.5309 14.2712C11.7069 14.3973 11.7806 14.6231 11.7128 14.8288L10.9577 17.1224C10.8077 17.5777 11.3274 17.9593 11.7169 17.68L13.7125 16.2492C13.885 16.1255 14.1173 16.1255 14.2898 16.2492L16.2854 17.68C16.6749 17.9593 17.1946 17.5777 17.0446 17.1224L16.2895 14.8288C16.2217 14.6231 16.2954 14.3973 16.4714 14.2712L18.4415 12.8586C18.8328 12.578 18.6344 11.9605 18.1528 11.9605H15.7036C15.4896 11.9605 15.2999 11.8232 15.233 11.6201L14.4717 9.30808C14.3223 8.85409 13.68 8.85409 13.5306 9.30808L12.7693 11.6201ZM16.7767 9.98197H18.1528C20.5574 9.98197 21.5486 13.0655 19.5944 14.4666L18.5094 15.2445L18.924 16.5036C19.6726 18.7772 17.0778 20.6827 15.1325 19.288L14.0011 18.4768L12.8698 19.288C10.9245 20.6827 8.32975 18.7772 9.07833 16.5036L9.4929 15.2445L8.40791 14.4666C6.45372 13.0655 7.44491 9.98197 9.84948 9.98197H11.2256L11.6512 8.68931C12.3977 6.42225 15.6046 6.42224 16.3511 8.68931L16.7767 9.98197Z" fill="#007AFF"/>
</svg>

<svg xmlns="http://www.w3.org/2000/svg" width="28" height="28" fill="none"><path fill="currentColor" fill-rule="evenodd" d="M13.127.978a5 5 0 0 1 1.677 0c.628.108 1.219.376 2.073.763l.113.051 4.99 2.26.112.05c.966.437 1.645.745 2.25 1.318.476.45.98 1.2 1.215 1.811.3.777.322 1.386.353 2.244l.002.072c.119 3.293-.368 7.261-2.034 10.611-1.685 3.389-4.593 6.158-9.223 6.87h-.008a4 4 0 0 1-.923.052 4 4 0 0 1-.44-.051l-.008-.001c-4.63-.712-7.537-3.481-9.222-6.87C2.388 16.808 1.9 12.84 2.019 9.547l.003-.072c.03-.858.052-1.467.352-2.244.236-.61.74-1.36 1.215-1.81.606-.574 1.284-.882 2.25-1.319l.112-.05 4.99-2.26.113-.05c.854-.388 1.445-.656 2.073-.764m1.342 1.95a3 3 0 0 0-1.007 0c-.346.06-.694.21-1.704.667l-4.99 2.26c-1.117.505-1.48.682-1.819 1.002-.262.248-.6.75-.73 1.087-.17.444-.19.74-.223 1.674-.11 3.086.356 6.698 1.83 9.66 1.453 2.923 3.87 5.197 7.75 5.794.146.022.181.028.269.033a2.2 2.2 0 0 0 .51-.033c3.88-.597 6.297-2.871 7.751-5.795 1.473-2.961 1.94-6.573 1.829-9.66-.034-.934-.052-1.229-.223-1.673a3.6 3.6 0 0 0-.73-1.087c-.338-.32-.701-.497-1.818-1.003l-4.99-2.26c-1.01-.457-1.358-.606-1.705-.666" clip-rule="evenodd"/><path fill="currentColor" fill-rule="evenodd" d="M12.77 11.62a.495.495 0 0 1-.471.34h-2.45a.495.495 0 0 0-.288.899l1.97 1.412c.176.126.25.352.182.558l-.755 2.293c-.15.456.37.837.759.558l1.995-1.43a.495.495 0 0 1 .578 0l1.995 1.43c.39.28.91-.102.76-.558l-.756-2.293a.495.495 0 0 1 .182-.558l1.97-1.412a.495.495 0 0 0-.288-.899h-2.45a.495.495 0 0 1-.47-.34l-.761-2.312a.495.495 0 0 0-.941 0zm4.007-1.638h1.376c2.404 0 3.396 3.084 1.441 4.485l-1.085.777.415 1.26c.749 2.273-1.846 4.179-3.791 2.784L14 18.477l-1.131.811c-1.945 1.395-4.54-.51-3.792-2.784l.415-1.26-1.085-.777c-1.954-1.402-.963-4.485 1.441-4.485h1.377l.425-1.293c.747-2.267 3.954-2.267 4.7 0z" clip-rule="evenodd"/></svg>
